X:310
T: Golden Pass
T: Atha D\'uin an \'Oir
S: "Roche Collection of Traditional Irish Music" [II/23/251]
L: 1/8
M: 6/8
R: jig
K: G
D | G2A B2A | G2E D2D | E2A A2G | A2E E2F |
G2A B2A | G2E D2B, | D2E G2A | B2G G2 :|
B | d2e d2B | A2B d2A | B2e e2d | e2B B2^c |
d2e d2B | G2A B2A | B2d A2=c | B2G G2B |
d2e d2B | G2A B2A | B2e e2d | e2B B2^c |
d2e d2B | A2B G2E | D2E G2A | B2G G2 :|
